docs/.gitbook/assets/icon-leaf-16@light.svg

<svg width="32" height="32" viewBox="0 0 16 16" fill="none" xmlns="http://www.w3.org/2000/svg">
<rect x="0" y="0" width="16" height="16" fill="#fff"/>
<path fill-rule="evenodd" clip-rule="evenodd" d="M3 9.75C3 4.91751 6.91751 1 11.75 1H14.25C14.6642 1 15 1.33579 15 1.75V4.25C15 9.08249 11.0825 13 6.25 13H4.06066L2.28033 14.7803C1.98744 15.0732 1.51256 15.0732 1.21967 14.7803C0.926777 14.4874 0.926777 14.0126 1.21967 13.7197L3 11.9393V9.75ZM5.56066 11.5L9.78033 7.28033C10.0732 6.98744 10.0732 6.51256 9.78033 6.21967C9.48744 5.92678 9.01256 5.92678 8.71967 6.21967L4.5 10.4393V9.75C4.5 5.74594 7.74594 2.5 11.75 2.5H13.5V4.25C13.5 8.25406 10.2541 11.5 6.25 11.5H5.56066Z" fill="#000"/>
</svg>

<svg xmlns="http://www.w3.org/2000/svg" width="32" height="32" fill="none" viewBox="0 0 16 16"><path fill="#fff" d="M0 0h16v16H0z"/><path fill="#000" fill-rule="evenodd" d="M3 9.75A8.75 8.75 0 0 1 11.75 1h2.5a.75.75 0 0 1 .75.75v2.5A8.75 8.75 0 0 1 6.25 13H4.06l-1.78 1.78a.75.75 0 0 1-1.06-1.06L3 11.94zm2.56 1.75 4.22-4.22a.75.75 0 0 0-1.06-1.06L4.5 10.44v-.69a7.25 7.25 0 0 1 7.25-7.25h1.75v1.75a7.25 7.25 0 0 1-7.25 7.25z" clip-rule="evenodd"/></svg>
